src/Resource_Files/fluent/edit-cut.svg

<svg clip-rule="evenodd" fill-rule="evenodd" stroke-linejoin="round" stroke-miterlimit="2" viewBox="0 0 16 16" xmlns="http://www.w3.org/2000/svg"><path d="m5.228 2.081c.206-.134.473-.097.636.076l.055.071 6.6 10.162c.437-.248.942-.39 1.481-.39 1.657 0 3 1.343 3 3s-1.343 3-3 3-3-1.343-3-3c0-.68.226-1.307.607-1.81l.133-.163-1.74-2.68-1.74 2.68c.461.527.74 1.218.74 1.973 0 1.657-1.343 3-3 3s-3-1.343-3-3 1.343-3 3-3c.462 0 .899.104 1.29.291l.191.099 1.923-2.961-4.323-6.657c-.151-.231-.085-.541.147-.691zm8.772 10.919c-1.105 0-2 .895-2 2s.895 2 2 2 2-.895 2-2-.895-2-2-2zm-8 0c-1.105 0-2 .895-2 2s.895 2 2 2 2-.895 2-2-.895-2-2-2zm8.772-10.919c.232.15.298.46.147.691l-3.727 5.739-.596-.918 3.485-5.365c.15-.232.46-.298.691-.147z" fill="#1abc9c" fill-rule="nonzero" transform="translate(-2 -2)"/></svg>

<?xml version="1.0" encoding="UTF-8" standalone="no"?>
<!DOCTYPE svg PUBLIC "-//W3C//DTD SVG 1.1//EN" "http://www.w3.org/Graphics/SVG/1.1/DTD/svg11.dtd">
<svg width="100%" height="100%" viewBox="0 0 16 16" version="1.1" xmlns="http://www.w3.org/2000/svg" xmlns:xlink="http://www.w3.org/1999/xlink" xml:space="preserve" xmlns:serif="http://www.serif.com/" style="fill-rule:evenodd;clip-rule:evenodd;stroke-linejoin:round;stroke-miterlimit:2;">
    <g id="cut" transform="matrix(1,0,0,1,-2,-2)">
        <path d="M5.228,2.081C5.434,1.947 5.701,1.984 5.864,2.157L5.919,2.228L12.519,12.39C12.956,12.142 13.461,12 14,12C15.657,12 17,13.343 17,15C17,16.657 15.657,18 14,18C12.343,18 11,16.657 11,15C11,14.32 11.226,13.693 11.607,13.19L11.74,13.027L10,10.347L8.26,13.027C8.721,13.554 9,14.245 9,15C9,16.657 7.657,18 6,18C4.343,18 3,16.657 3,15C3,13.343 4.343,12 6,12C6.462,12 6.899,12.104 7.29,12.291L7.481,12.39L9.404,9.429L5.081,2.772C4.93,2.541 4.996,2.231 5.228,2.081ZM14,13C12.895,13 12,13.895 12,15C12,16.105 12.895,17 14,17C15.105,17 16,16.105 16,15C16,13.895 15.105,13 14,13ZM6,13C4.895,13 4,13.895 4,15C4,16.105 4.895,17 6,17C7.105,17 8,16.105 8,15C8,13.895 7.105,13 6,13ZM14.772,2.081C15.004,2.231 15.07,2.541 14.919,2.772L11.192,8.511L10.596,7.593L14.081,2.228C14.231,1.996 14.541,1.93 14.772,2.081Z" style="fill:rgb(26,188,156);fill-rule:nonzero;"/>
    </g>
</svg>
